images/preim-5.svg

<svg width="50" height="51" viewBox="0 0 50 51" fill="none" xmlns="http://www.w3.org/2000/svg">
<g clip-path="url(#clip0_1157_41478)">
<circle cx="25" cy="25.6987" r="25" fill="white"/>
<path d="M35.9876 19.4507C35.9835 19.404 35.9739 19.36 35.9601 19.3146C35.9464 19.2692 35.9299 19.228 35.9079 19.1867C35.8982 19.1689 35.8969 19.1469 35.8845 19.129L33.1345 15.004C33.0066 14.8142 32.7921 14.6987 32.5625 14.6987H17.4375C17.2079 14.6987 16.9934 14.8142 16.8655 15.0054L14.1155 19.1304C14.1031 19.1482 14.1018 19.1689 14.0921 19.1881C14.0701 19.2294 14.0536 19.2706 14.0399 19.316C14.0261 19.3614 14.0165 19.4054 14.0124 19.4521C14.0096 19.4714 14 19.4892 14 19.5112V35.3237C14 36.0827 14.6174 36.6987 15.375 36.6987H34.625C35.3826 36.6987 36 36.0827 36 35.3237V19.5112C36 19.4892 35.9904 19.4714 35.9876 19.4507ZM32.194 16.0737L34.0282 18.8237H27.6455L27.1863 16.0737H32.194ZM24.2066 16.0737H25.792L26.2512 18.8237H23.7488L24.2066 16.0737ZM23.625 20.1987H26.375V22.6834L25.2172 22.2956C25.0756 22.2502 24.923 22.2502 24.7828 22.2956L23.625 22.6834V20.1987ZM17.806 16.0737H22.8137L22.3545 18.8237H15.9718L17.806 16.0737ZM34.625 36.0112V35.3237H15.375V20.1987H22.25V23.6362C22.25 23.8576 22.3559 24.0652 22.536 24.1931C22.7148 24.3237 22.9444 24.354 23.1547 24.2894L25 23.6734L26.8453 24.288C26.9167 24.3114 26.9896 24.3237 27.0625 24.3237C27.2055 24.3237 27.3457 24.2797 27.464 24.1931C27.6441 24.0652 27.75 23.8576 27.75 23.6362V20.1987H34.625V35.3237C34.625 35.3237 34.625 35.3237 34.6264 35.3237L34.625 36.0112Z" fill="#F53B49"/>
</g>
<defs>
<clipPath id="clip0_1157_41478">
<rect width="50" height="50" fill="white" transform="translate(0 0.69873)"/>
</clipPath>
</defs>
</svg>

<svg width="50" height="51" fill="none" xmlns="http://www.w3.org/2000/svg"><g clip-path="url(#clip0_1157_41478)"><circle cx="25" cy="25.699" r="25" fill="#fff"/><path d="M35.988 19.45a.69.69 0 00-.08-.264c-.01-.017-.011-.04-.023-.057l-2.75-4.125a.691.691 0 00-.572-.305H17.437a.689.689 0 00-.572.306l-2.75 4.125c-.012.018-.013.039-.023.058a.69.69 0 00-.08.264c-.002.02-.012.037-.012.06v15.812c0 .759.617 1.375 1.375 1.375h19.25c.758 0 1.375-.616 1.375-1.375V19.51c0-.022-.01-.04-.012-.06zm-3.794-3.376l1.834 2.75h-6.383l-.459-2.75h5.008zm-7.987 0h1.585l.46 2.75h-2.503l.458-2.75zm-.582 4.125h2.75v2.484l-1.158-.387a.71.71 0 00-.434 0l-1.158.387V20.2zm-5.819-4.125h5.008l-.46 2.75h-6.382l1.834-2.75zM34.625 36.01v-.687h-19.25V20.199h6.875v3.437c0 .222.106.43.286.557.179.13.408.161.619.096L25 23.673l1.845.615a.677.677 0 00.619-.095.682.682 0 00.286-.557V20.2h6.875v15.125h.001l-.001.687z" fill="#F53B49"/></g><defs><clipPath id="clip0_1157_41478"><path fill="#fff" transform="translate(0 .699)" d="M0 0h50v50H0z"/></clipPath></defs></svg>
